!!!OTL: Der Lindenschmied Es ist noch nit lang, als dieses geschah,
!!!ARE: Europa, Mitteleuropa, Lothringen, Metz ( St. Vinzent )
!!!SCT: D0022
!!!YEM: Copyright 1995, estate of Helmut Schaffrath.
**kern
*ICvox
*Ivox
*M6/8
*k[b-e-]
*g:
{16d
16d
=1
4g
8g
4fn
8fn
=2
8b-
8dd
8cc
4b-}
{8g
=3
4a
8b-
8cc
8cc
8b-
=4
8g
8g
8ff#
4g}
{8a
=5
8cc
8dd
8cc
4b-
8a
=6
4.g
4fn}
{8fn
=7
8b-
8dd
8cc
4dd
16dd
16cc
=8
8b-
8cc
8dd
4.cc}
=9
{4.dd
8cc
8b-
8a
=10
8g
8d
8g
8b-
8a
8g
=11
4.d
4g}
==
!!!AGN: historisches Lied
!!!ONB: ESAC (Essen Associative Code) Database: DVA
!!!AMT: compound duple
!!!AIN: vox
!!!EED: Helmut Schaffrath
!!!EEV: 1.0
*-
